src/assets/icons/shapes,simple,filled-octagon_alt.svg

<svg width="48" height="48" viewBox="0 0 48 48" fill="none" xmlns="http://www.w3.org/2000/svg">
<rect opacity="0.2" x="5" y="5" width="38" height="38" rx="4" fill="black"/>
<path d="M16.6999 12.8616C17.5951 11.9413 18.0427 11.4812 18.6038 11.2448C19.165 11.0084 19.807 11.0095 21.0912 11.0118C22.9326 11.0151 25.0771 11.012 26.7395 11.0081C28.0924 11.005 28.7688 11.0034 29.326 11.2355C29.8831 11.4677 30.3885 11.9796 31.3994 13.0035C32.5837 14.2032 34.0179 15.6099 35.1384 16.6999C36.0587 17.5951 36.5188 18.0427 36.7552 18.6038C36.9916 19.165 36.9905 19.807 36.9882 21.0912C36.9848 23.0032 36.9883 25.2421 36.9923 26.9287C36.9954 28.1956 36.9969 28.829 36.7604 29.3907C36.524 29.9524 36.0667 30.3972 35.1522 31.2867C34.0296 32.3786 32.5884 33.792 31.3989 34.997C30.3884 36.0206 29.8832 36.5323 29.3261 36.7645C28.7689 36.9966 28.0927 36.9951 26.7403 36.9919C25.1345 36.9883 23.0788 36.9853 21.2806 36.988C19.9101 36.9901 19.2249 36.9911 18.6685 36.7591C18.1121 36.5271 17.6038 36.0124 16.5872 34.9829C15.4054 33.7861 13.9779 32.386 12.8616 31.3001C11.9413 30.4049 11.4812 29.9573 11.2448 29.3962C11.0084 28.835 11.0095 28.193 11.0118 26.9089C11.0151 25.0674 11.012 22.9229 11.0081 21.2605C11.005 19.9076 11.0034 19.2312 11.2355 18.674C11.4677 18.1169 11.9796 17.6115 13.0035 16.6006C14.2032 15.4163 15.6099 13.9821 16.6999 12.8616Z" fill="black"/>
</svg>

<svg xmlns="http://www.w3.org/2000/svg" width="48" height="48" fill="none" viewBox="0 0 48 48">
  <rect width="38" height="38" x="5" y="5" fill="#000" opacity=".2" rx="4"/>
  <path fill="#000" d="M16.7 12.862c.895-.92 1.343-1.38 1.904-1.617.561-.237 1.203-.236 2.487-.233 1.842.003 3.986 0 5.648-.004 1.353-.003 2.03-.005 2.587.228.557.232 1.063.744 2.073 1.768 1.185 1.2 2.619 2.606 3.74 3.696.92.895 1.38 1.343 1.616 1.904.237.561.235 1.203.233 2.487-.003 1.912 0 4.151.004 5.838.003 1.267.005 1.9-.232 2.462-.236.561-.693 1.006-1.608 1.896a277.887 277.887 0 00-3.753 3.71c-1.01 1.024-1.516 1.535-2.073 1.767-.557.233-1.233.231-2.586.228-1.605-.004-3.661-.007-5.46-.004-1.37.002-2.055.003-2.611-.229-.557-.232-1.065-.747-2.082-1.776a278.618 278.618 0 00-3.725-3.683c-.92-.895-1.38-1.343-1.617-1.904-.237-.561-.236-1.203-.233-2.487.003-1.842 0-3.986-.004-5.648-.003-1.353-.005-2.03.228-2.587.232-.557.744-1.063 1.768-2.073 1.2-1.185 2.606-2.619 3.696-3.74z"/>
</svg>
